contributed-vectors/aio_launcher.svg

<svg xmlns="http://www.w3.org/2000/svg" viewBox="0 0 192 192"><rect width="176" height="127" x="8" y="32.5" fill="#54688c" rx="10"/><path fill="#b1b5bd" d="M8 85.9h116.95a10.1 10.1 0 0 1 10.1 10.1 10.1 10.1 0 0 1-10.1 10.1H8V85.9Z"/><path fill="#98dc9a" d="M155 85.9h29v20.2h-29A10.1 10.1 0 0 1 144.87 96 10.1 10.1 0 0 1 155 85.9Z"/><path fill="#f8c18c" d="M8 117h49.35a10.1 10.1 0 0 1 10.1 10.1 10.1 10.1 0 0 1-10.1 10.1H8V117Z"/><path fill="#96dfd3" d="M134.34 117H184v20.21h-49.66a10.1 10.1 0 0 1-10.1-10.1 10.1 10.1 0 0 1 10.1-10.1Z"/><rect width="41.27" height="20.21" x="75.28" y="116.95" fill="#728dbe" rx="10.1"/><path fill="#9abeff" d="M8 54.84h68.14a10.1 10.1 0 0 1 10.1 10.1A10.1 10.1 0 0 1 76.14 75H8V54.84Z"/><path fill="#f9de81" d="M106.1 54.84H184V75h-77.9A10.1 10.1 0 0 1 96 64.94a10.1 10.1 0 0 1 10.1-10.1Z"/></svg>

<svg xmlns="http://www.w3.org/2000/svg" viewBox="0 0 192 192"><title>AIO Launcher</title><rect x="8" y="32.5" width="176" height="127" rx="10" fill="#54688c"/><path d="M8,85.9H124.95A10.1,10.1,0,0,1,135.05,96v0a10.1,10.1,0,0,1-10.1,10.1H8a0,0,0,0,1,0,0V85.9A0,0,0,0,1,8,85.9Z" fill="#b1b5bd"/><path d="M155,85.9h29a0,0,0,0,1,0,0V106.1a0,0,0,0,1,0,0H155A10.1,10.1,0,0,1,144.87,96v0A10.1,10.1,0,0,1,155,85.9Z" fill="#98dc9a"/><path d="M8,117H57.35a10.1,10.1,0,0,1,10.1,10.1v0a10.1,10.1,0,0,1-10.1,10.1H8a0,0,0,0,1,0,0V117a0,0,0,0,1,0,0Z" fill="#f8c18c"/><path d="M134.34,117H184a0,0,0,0,1,0,0v20.21a0,0,0,0,1,0,0H134.34a10.1,10.1,0,0,1-10.1-10.1v0a10.1,10.1,0,0,1,10.1-10.1Z" fill="#96dfd3"/><rect x="75.28" y="116.95" width="41.27" height="20.21" rx="10.1" fill="#728dbe"/><path d="M8,54.84H76.14a10.1,10.1,0,0,1,10.1,10.1v0A10.1,10.1,0,0,1,76.14,75H8a0,0,0,0,1,0,0V54.84a0,0,0,0,1,0,0Z" fill="#9abeff"/><path d="M106.1,54.84H184a0,0,0,0,1,0,0V75a0,0,0,0,1,0,0H106.1A10.1,10.1,0,0,1,96,64.94v0a10.1,10.1,0,0,1,10.1-10.1Z" fill="#f9de81"/></svg>
